X:1
T:Bobbing Around   [1]
T:Bobbing Around   [1]
T:John Mason
C:John Mason
L:1/8
Q:1/4=120
M:4/4
K:G
V:1 treble 
V:1
 z6 D2 | G3 A B2 c2 | d2 g2 d3 B | d2 A2 d2 BA | G2 FE D4 | G2 A2 B2 c2 | d2 g2 d3 B | %7
 c2 A2 d2 F2 | G4 G2 || z6 G2 | F2 G2 A2 B2 | c2 B2 A3 B | c2 e2 d2 BA | G2 FE D4 | G3 A B2 c2 | %15
 d2 g2 d3 B | c2 A2 d2 F2 | G4 G2 || z8 | G2 A2 B2 c2 | z8 | cBcB A2 B2 |] %22

